src/assets/logo.svg

<svg width="450" height="450" viewBox="0 0 450 450" style="isolation:isolate"><defs><clipPath id="231646325a"><path d="M0 0h450v450H0z"/></clipPath></defs><g clip-path="url(#231646325a)"><path d="M300.587 315.19c-12.094 0-6.067-28.179-6.067-32.24 1.027-2.006-9.05-121.916-9.05-121.916 1.027-4.062 3.023-9.1 10.077-9.1l2.006-.001c16.145 0 30.235-13.102 30.235-29.207 0-16.145-13.102-29.257-30.235-29.257-16.095 0-30.235 13.112-30.235 29.257 0 3.024 0 6.017 1.028 9.05 0 0 6.017 15.118-7.054 13.112 0 0-113.884 39.285-118.923 40.313-14.14 25.196-50.391 12.094-61.497 4.01-3.024-4.008-9.051-7.039-16.095-7.039-12.216.086-22.103 9.955-22.213 22.171 1.028 11.097 11.106 21.175 23.2 21.175 4.062 0 9.1-1.028 12.094-3.023 18.14-9.07 51.409-3.044 55.43 13.1v1.03c1.008 2.982 24.188 49.362 27.222 53.373 15.117 28.229-22.213 39.336-22.213 39.336-10.078 0-19.128 9.05-19.128 20.156 0 12.083 10.078 22.161 22.172 22.161 12.073 0 22.152-10.078 22.152-22.172 3.033-23.18 15.117-38.297 37.33-39.325 2.983 1.028 57.435-2.983 61.446-4.011 16.146 3.024 7.055 16.146 7.055 38.298 0 16.105 13.102 29.227 30.235 29.227 16.135 0 30.234-13.122 30.234-29.227 1.018-16.125-12.094-29.247-29.216-29.247h.01z" fill="#2E7D32"/><path d="M367.123 167.06c-9.1 0-16.145 4.052-19.179 12.074-9.05 13.112-28.219 16.145-40.313 10.078-2.005-5.039-129-39.285-129-38.257-16.103 9.05-31.219-19.178-30.232-32.29v-.978c1.017-3.033 1.017-6.067 1.017-9.1 0-16.095-13.1-29.207-30.234-29.207-16.145 0-30.234 13.102-30.234 29.207 0 13.11 9.05 23.19 19.13 28.23 17.172 7.053 40.311 27.21 38.306 41.34 7.055 12.083-9.05 74.558-8.063 79.597-9.06 9.1-27.21 7.055-34.257 4.062-3.023-4.062-9.05-6.067-15.117-6.067-16.145 0-30.234 13.101-30.234 29.206.001 16.146 13.102 29.257 30.235 29.257 10.078 0 18.14-4.06 24.168-12.094 9.1-13.1 24.218-25.195 37.33-25.195 2.005 2.993 164.234-60.469 164.234-61.487 1.028-6.067 25.195-12.094 46.38-7.055h6.067c12.084 0 22.162-10.078 22.162-22.152 0-12.134-10.078-19.18-22.172-19.18l.01.01z" fill="#4CAF50"/><path d="M315.704 225.514c0 50.08-40.625 90.704-90.704 90.704-50.08 0-90.704-40.625-90.704-90.704 0-50.08 40.625-90.704 90.704-90.704 50.08 0 90.704 40.625 90.704 90.704z" fill="#4CAF50"/><path d="M248.18 311.179c3.044-6.067-8.063-8.063-17.113-8.063-9.1 0-18.151 5.039-16.145 11.086 24.167 36.262 6.067 41.3-5.039 48.396-9.051 4.01-15.118 15.117-15.118 25.195C194.765 403.888 207.867 417 225 417s30.235-13.102 30.235-29.207c1.028-28.229-17.133-67.564-7.055-76.614zm126.965-56.458c-6.017.003-12.084 1.03-16.095 4.064-18.151 7.045-34.296-6.067-46.38-14.14-6.016-4.01-13.1 6.068-15.117 9.1-2.006 3.025-5.04 17.124 7.055 17.124 20.156-7.055 45.352 28.219 45.352 28.219 4.05 10.078 15.117 16.105 27.24 16.105 16.097 0 30.237-13.06 30.237-29.207-3.034-18.141-16.146-31.262-32.291-31.262zM198.776 79.383c19.18 39.285 18.15 54.402 7.096 58.454-9.101 7.054 6.016 16.105 17.122 14.11 11.056-2.017 21.134-7.056 14.09-17.134-17.123-30.234 5.04-50.39 5.04-50.39 7.054-4.012 12.093-13.103 12.093-22.173 0-16.125-13.072-29.247-30.235-29.247-17.133 0-30.235 13.112-30.235 29.257 0 4.01 1.018 9.05 3.024 13.102 0 2.993 0 2.993 2.016 4.021h-.01z" fill="#8BC34A"/><path d="M208.855 225.514c-16.095 0-30.235-13.102-30.235-29.207 0-16.145 13.112-29.257 30.235-29.257 17.173 0 30.234 13.112 30.234 29.257 0 16.095-13.06 29.207-30.234 29.207z" fill="#C5E1A5"/><path d="M193.737 269.838c-9.05 0-15.117-6.017-15.117-15.117 0-9.05 6.067-15.118 15.117-15.118 9.1 0 15.118 6.067 15.118 15.118 0 9.1-6.017 15.117-15.118 15.117z" fill="#F1F8E9"/><path d="M247.172 285.983c-12.094 0-22.172-10.078-22.172-22.172 0-12.074 10.078-22.152 22.172-22.152 12.074 0 22.152 10.078 22.152 22.162 0 12.087-10.078 22.165-22.162 22.165h.01z" fill="#DCEDC8"/></g></svg>

<?xml version="1.0" encoding="UTF-8" standalone="no"?>
<!-- Generator: Gravit.io -->
<svg xmlns="http://www.w3.org/2000/svg" xmlns:xlink="http://www.w3.org/1999/xlink" style="isolation:isolate" viewBox="0 0 450 450" width="450" height="450"><defs><clipPath id="_clipPath_zNMc8mTeoN30gkUzd7glWakACWVBWb02"><rect width="450" height="450"/></clipPath></defs><g clip-path="url(#_clipPath_zNMc8mTeoN30gkUzd7glWakACWVBWb02)"><g id="Group"><path d=" M 300.587 315.19 C 288.493 315.19 294.52 287.011 294.52 282.95 C 295.547 280.944 285.469 161.034 285.469 161.034 C 286.497 156.972 288.493 151.933 295.547 151.933 L 297.553 151.933 C 313.698 151.933 327.788 138.831 327.788 122.726 C 327.788 106.581 314.686 93.469 297.553 93.469 C 281.458 93.469 267.318 106.581 267.318 122.726 C 267.318 125.75 267.318 128.743 268.346 131.777 C 268.346 131.777 274.363 146.894 261.292 144.888 C 261.292 144.888 147.408 184.173 142.369 185.201 C 128.229 210.397 91.978 197.295 80.872 189.212 C 77.848 185.201 71.821 182.168 64.777 182.168 C 52.561 182.255 42.674 192.124 42.564 204.34 C 43.592 215.436 53.67 225.514 65.764 225.514 C 69.826 225.514 74.865 224.486 77.858 222.491 C 95.999 213.42 129.267 219.447 133.288 235.592 L 133.288 236.62 C 134.296 239.603 157.476 285.983 160.51 289.994 C 175.627 318.223 138.297 329.33 138.297 329.33 C 128.219 329.33 119.169 338.38 119.169 349.486 C 119.169 361.57 129.247 371.648 141.341 371.648 C 153.414 371.648 163.493 361.57 163.493 349.476 C 166.526 326.296 178.61 311.179 200.822 310.151 C 203.806 311.179 258.258 307.168 262.269 306.14 C 278.415 309.163 269.324 322.285 269.324 344.437 C 269.324 360.542 282.426 373.664 299.559 373.664 C 315.694 373.664 329.793 360.542 329.793 344.437 C 330.811 328.312 317.699 315.19 300.577 315.19 L 300.587 315.19 Z " fill="rgb(46,125,50)"/><path d=" M 367.123 167.06 C 358.022 167.06 350.978 171.112 347.944 179.134 C 338.894 192.246 319.725 195.279 307.631 189.212 C 305.626 184.173 178.63 149.927 178.63 150.955 C 162.525 160.006 147.408 131.777 148.396 118.665 L 148.396 117.687 C 149.413 114.654 149.413 111.62 149.413 108.587 C 149.413 92.492 136.312 79.38 119.179 79.38 C 103.033 79.38 88.944 92.482 88.944 108.587 C 88.944 121.698 97.994 131.777 108.073 136.816 C 125.246 143.87 148.385 164.027 146.38 178.156 C 153.435 190.24 137.33 252.715 138.317 257.754 C 129.257 266.855 111.106 264.809 104.061 261.816 C 101.038 257.754 95.011 255.749 88.944 255.749 C 72.799 255.749 58.71 268.85 58.71 284.955 C 58.71 301.101 71.811 314.212 88.944 314.212 C 99.022 314.212 107.085 310.151 113.112 302.118 C 122.212 289.017 137.33 276.923 150.441 276.923 C 152.447 279.916 314.676 216.454 314.676 215.436 C 315.704 209.369 339.871 203.342 361.056 208.381 L 367.123 208.381 C 379.207 208.381 389.285 198.303 389.285 186.229 C 389.285 174.095 379.207 167.05 367.113 167.05 L 367.123 167.06 Z " fill="rgb(76,175,80)"/><path d=" M 315.704 225.514 C 315.704 275.593 275.079 316.218 225 316.218 C 174.921 316.218 134.296 275.593 134.296 225.514 C 134.296 175.435 174.921 134.81 225 134.81 C 275.079 134.81 315.704 175.435 315.704 225.514 Z " fill="rgb(76,175,80)"/><path d=" M 248.18 311.179 C 251.224 305.112 240.117 303.116 231.067 303.116 C 221.966 303.116 212.916 308.155 214.922 314.202 C 239.089 350.464 220.989 355.503 209.883 362.598 C 200.832 366.609 194.765 377.715 194.765 387.793 C 194.765 403.888 207.867 417 225 417 C 242.133 417 255.235 403.898 255.235 387.793 C 256.263 359.564 238.102 320.229 248.18 311.179 Z  M 375.145 254.721 C 369.128 254.721 363.061 255.749 359.05 258.782 C 340.899 265.827 324.754 252.715 312.67 244.642 C 306.654 240.631 299.569 250.71 297.553 253.743 C 295.547 256.767 292.514 270.866 304.608 270.866 C 324.764 263.811 349.96 299.085 349.96 299.085 C 354.011 309.163 365.077 315.19 377.201 315.19 C 393.296 315.19 407.436 302.129 407.436 285.983 C 404.402 267.842 391.29 254.721 375.145 254.721 Z  M 198.776 79.38 C 217.955 118.665 216.927 133.782 205.872 137.834 C 196.771 144.888 211.888 153.939 222.994 151.943 C 234.05 149.927 244.128 144.888 237.084 134.81 C 219.961 104.575 242.123 84.419 242.123 84.419 C 249.178 80.408 254.217 71.317 254.217 62.247 C 254.217 46.122 241.145 33 223.982 33 C 206.849 33 193.747 46.112 193.747 62.257 C 193.747 66.268 194.765 71.307 196.771 75.359 C 196.771 78.352 196.771 78.352 198.787 79.38 L 198.776 79.38 Z " fill="rgb(139,195,74)"/><path d=" M 208.855 225.514 C 192.76 225.514 178.62 212.412 178.62 196.307 C 178.62 180.162 191.732 167.05 208.855 167.05 C 226.028 167.05 239.089 180.162 239.089 196.307 C 239.089 212.402 226.028 225.514 208.855 225.514 Z " fill="rgb(197,225,165)"/><path d=" M 193.737 269.838 C 184.687 269.838 178.62 263.821 178.62 254.721 C 178.62 245.67 184.687 239.603 193.737 239.603 C 202.838 239.603 208.855 245.67 208.855 254.721 C 208.855 263.821 202.838 269.838 193.737 269.838 Z " fill="rgb(241,248,233)"/><path d=" M 247.172 285.983 C 235.078 285.983 225 275.905 225 263.811 C 225 251.737 235.078 241.659 247.172 241.659 C 259.246 241.659 269.324 251.737 269.324 263.821 C 269.324 275.905 259.246 285.983 247.162 285.983 L 247.172 285.983 Z " fill="rgb(220,237,200)"/></g></g></svg>
